2f5
albertroad.htmlalbertroad.htmlalbertroad.htmlalbertroad.htmlalbertroad.htmlalbertroad.htmlalbertroad.htmlalbertroad.htmlalbertroad.htmlSource: Brendan Mulvihill
albertroad.htmlalbertroad.html

T:Wind that Shakes the Barley, The
M:C|
L:1/8
Q:230
S:Brendan Mulvihill
R:reel
Z:Devin McCabe
K:D
A3B AFEF|DBBA BcdB|A~F3 AFDf|gfed BcdB|
!A/2B/2A FA d2cA|B2EF GEFE|D~F3 EFDf|gfed Bcde|
!~f3a ~g3e|f2ed BcdB|A~f3 gefg|afed BcdB|
!A~f3 gfeg|fegf edBc|defg a~f3|gfed BAdB||

%  ABC2Win Version 2.1 9/30/2000



albertroad.htmlalbertroad.htmlalbertroad.htmlalbertroad.htmlalbertroad.htmlalbertroad.html
0

